X:49
T:owen's partner
R:double jig
S:davidsons musical miracles
H:1859
B:two hundred and fifty welsh airs for a shilling
B:adapted for the violin, flute, accordion
B:or any treble instrument
O:traditional welsh
Z:crm
M:6/8
Q:3/8=120
K:D
dBA GFD|FAB A2D|dBA GFD|FAB A2c|
dgf edB|AFD EAG|Fdd BGE|GEA D2z:|
AFF BGG|AFD F2E|dAA BAF|GDE F2E|
DBA GFD|FAB A2D|dBA GFD|GEA D2z:|
